X:29
T: Does Maala vo der Haa hot schoena weissa Baa
N: V0006C
O: Europa, Mitteleuropa, Deutschland, Ober - Franken, Ort
R: Liebes - Lied
M: 2/4
L: 1/16
K: Bb
B2 | f3fg2f2 | d4z2
f2 | f2f2g2f2 | e4z2
f2 | f2f2g2f2 | aaa2z2
f2 | f2f2g2f2 | bbb2z2
f2 | f2f2g2f2 | d4z2
f2 | f2f2g2aa | b4z2
